X:63
T:Dance around Molly
R:Reel
O:USA
S:Xerox of uncertain origin
Z:Transcription, chords:Mike Long
M:C|
L:1/8
K:A
"A"A,A,CE A2ec|"D"BAcB AFEE|"A"A,A,CE A2 ec|"E"BAcB AFEE|\
"A"A,A,CE A2ec|"D"BAcB AFEE|
"A"e2ef ecBA|[1 "E"BABc "A"A4:|[2 "E"BABc "A"A2 (3(efg)\
|:"A"a2aa bafg|"D"fecA BAFE|"A"a2aa bafg|
"E"f2e2 e2 (3(efg)|\
"A"a2aa bafg|"D"fecA BAFE|"A"EFAA BAcA|[1 "E"fecB "A"A2 (3(efg):|[2 "E"fecB "A"A4|]
